src/components/Icon/utils/svgsOptimized/list-bulleted.svg

<svg width="24" height="24" viewBox="0 0 24 24"  xmlns="http://www.w3.org/2000/svg">
<path d="M7.2 8.4C7.86274 8.4 8.4 7.86274 8.4 7.2C8.4 6.53726 7.86274 6 7.2 6C6.53726 6 6 6.53726 6 7.2C6 7.86274 6.53726 8.4 7.2 8.4Z" />
<path d="M7.2 13.2C7.86274 13.2 8.4 12.6627 8.4 12C8.4 11.3372 7.86274 10.8 7.2 10.8C6.53726 10.8 6 11.3372 6 12C6 12.6627 6.53726 13.2 7.2 13.2Z" />
<path d="M8.4 16.8C8.4 17.4627 7.86274 18 7.2 18C6.53726 18 6 17.4627 6 16.8C6 16.1372 6.53726 15.6 7.2 15.6C7.86274 15.6 8.4 16.1372 8.4 16.8Z" />
<path d="M10.5 16.2H17.7C17.8657 16.2 18 16.3343 18 16.5V17.1C18 17.2657 17.8657 17.4 17.7 17.4H10.5C10.3343 17.4 10.2 17.2657 10.2 17.1V16.5C10.2 16.3343 10.3343 16.2 10.5 16.2Z" />
<path d="M10.5 11.4H15.3C15.4657 11.4 15.6 11.5343 15.6 11.7V12.3C15.6 12.4657 15.4657 12.6 15.3 12.6H10.5C10.3343 12.6 10.2 12.4657 10.2 12.3V11.7C10.2 11.5343 10.3343 11.4 10.5 11.4Z" />
<path d="M10.5 6.59998H16.5C16.6657 6.59998 16.8 6.73429 16.8 6.89998V7.49998C16.8 7.66566 16.6657 7.79998 16.5 7.79998H10.5C10.3343 7.79998 10.2 7.66566 10.2 7.49998V6.89998C10.2 6.73429 10.3343 6.59998 10.5 6.59998Z" />
</svg>

<?xml version="1.0" encoding="utf-8"?><svg width="24" height="24" xmlns="http://www.w3.org/2000/svg" viewBox="0 0 24 24"><path d="M7.2 8.4a1.2 1.2 0 1 0 0-2.4 1.2 1.2 0 0 0 0 2.4Zm0 4.8a1.2 1.2 0 1 0 0-2.4 1.2 1.2 0 0 0 0 2.4Zm1.2 3.6a1.2 1.2 0 1 1-2.4 0 1.2 1.2 0 0 1 2.4 0Zm2.1-.6h7.2a.3.3 0 0 1 .3.3v.6a.3.3 0 0 1-.3.3h-7.2a.3.3 0 0 1-.3-.3v-.6a.3.3 0 0 1 .3-.3Zm0-4.8h4.8a.3.3 0 0 1 .3.3v.6a.3.3 0 0 1-.3.3h-4.8a.3.3 0 0 1-.3-.3v-.6a.3.3 0 0 1 .3-.3Zm0-4.8h6a.3.3 0 0 1 .3.3v.6a.3.3 0 0 1-.3.3h-6a.3.3 0 0 1-.3-.3v-.6a.3.3 0 0 1 .3-.3Z"/></svg>
